X:1
T:Marlow, CM
T:Marlow, CM
T:John Chetham, Book of Psalmody, 1718
T:Public Domain Courtesy of the Cyber Hymnal™
C:John Chetham, Book of Psalmody, 1718
Z:Public Domain
Z:Courtesy of the Cyber Hymnal™
%%score ( 1 2 ) ( 3 4 )
L:1/8
Q:1/4=140
M:3/2
K:G
V:1 treble 
V:2 treble 
V:3 bass 
V:4 bass 
V:1
 [DG]4 | [GB]2 [GB]2 [DB]4 [EG]4 | [Fd]2 [Gd]2 [Fd]4 [Fd]4 | [GB]2 [DG]2 c4 [GB]4 | [FA]8 [DG]4 | %5
 [GB]2 [GB]2 [DB]4 [EG]4 | [Fd]2 [Gd]2 [Fd]4 [Fd]4 | [GB]2 G2 [EG]4 [DF]4 | [DG]8 |] %9
V:2
 x4 | x12 | x12 | x4 (E2 F2) x4 | x12 | x12 | x12 | x2 G2 x8 | x8 |] %9
V:3
 [G,B,]4 | [G,D]2 [G,D]2 [G,D]4 [E,G,]4 | [D,A,]2 [G,B,]2 [D,A,]4 [D,A,]4 | %3
 [G,B,]2 [B,D]2 [A,C]4 [G,D]4 | [D,D]8 [G,B,]4 | [G,D]2 [G,D]2 [G,D]4 [E,G,]4 | %6
 [D,A,]2 [G,B,]2 [D,A,]4 [D,A,]4 | G,2 [E,B,]2 [C,C]4 [D,A,]4 | [G,,B,]8 |] %9
V:4
 x4 | x12 | x12 | x12 | x12 | x12 | x12 | G,2 x10 | x8 |] %9

